_inc/systems/logos/lutris.svg

<?xml version="1.0" encoding="utf-8"?>
<svg viewBox="0 0 3000 840.9" version="1.1" id="svg866" xmlns="http://www.w3.org/2000/svg">
  <path id="path847" style="font: 160px / 1.25 Montserrat; fill-opacity: 1; letter-spacing: 0px; word-spacing: 0px; stroke: none; fill: rgb(255, 255, 255);" d="M 0 47.28 L 83.285 47.28 L 83.285 763.236 L 524.575 763.236 L 524.575 835.273 L 0 835.273 Z"/>
  <path id="path849" style="font: 160px / 1.25 Montserrat; fill-opacity: 1; letter-spacing: 0px; word-spacing: 0px; stroke: none; fill: rgb(255, 255, 255);" d="M 1170.728 243.155 L 1170.728 835.273 L 1094.17 835.273 L 1094.17 727.204 C 1073.163 763.236 1044.284 791.37 1007.508 811.633 C 970.731 831.151 928.69 840.91 881.41 840.91 C 804.108 840.91 742.947 819.531 697.927 776.745 C 653.651 733.214 631.501 669.793 631.501 586.507 L 631.501 243.155 L 711.435 243.155 L 711.435 578.61 C 711.435 640.914 726.832 688.194 757.599 720.45 C 788.365 752.732 832.268 768.873 889.307 768.873 C 951.585 768.873 1000.753 750.1 1036.759 712.579 C 1072.79 674.313 1090.793 621.396 1090.793 553.853 L 1090.793 243.155 Z"/>
  <path id="path851" style="font: 160px / 1.25 Montserrat; fill-opacity: 1; letter-spacing: 0px; word-spacing: 0px; stroke: none; fill: rgb(255, 255, 255);" d="M 1706.578 799.268 C 1691.554 812.776 1672.806 823.28 1650.283 830.779 C 1628.531 837.533 1605.636 840.91 1581.623 840.91 C 1526.073 840.91 1483.314 825.913 1453.292 795.891 C 1423.269 765.869 1408.245 723.455 1408.245 668.676 L 1408.245 310.698 L 1302.437 310.698 L 1302.437 243.155 L 1408.245 243.155 L 1408.245 113.706 L 1488.18 113.706 L 1488.18 243.155 L 1668.286 243.155 L 1668.286 310.698 L 1488.18 310.698 L 1488.18 664.182 C 1488.18 699.442 1496.822 726.46 1514.08 745.233 C 1532.083 763.236 1557.611 772.251 1590.611 772.251 C 1607.125 772.251 1622.894 769.618 1637.891 764.353 C 1653.66 759.114 1667.169 751.615 1678.417 741.856 Z"/>
  <path id="path853" style="font: 160px / 1.25 Montserrat; fill-opacity: 1; letter-spacing: 0px; word-spacing: 0px; stroke: none; fill: rgb(255, 255, 255);" d="M 1928.326 359.095 C 1947.1 319.34 1974.862 289.318 2011.638 269.055 C 2049.159 248.792 2095.322 238.661 2150.101 238.661 L 2150.101 316.335 L 2130.955 315.192 C 2068.677 315.192 2019.882 334.338 1984.621 372.603 C 1949.334 410.896 1931.703 464.558 1931.703 533.59 L 1931.703 835.273 L 1851.795 835.273 L 1851.795 243.155 L 1928.326 243.155 Z"/>
  <path id="path855" style="font: 160px / 1.25 Montserrat; fill-opacity: 1; letter-spacing: 0px; word-spacing: 0px; stroke: none; fill: rgb(255, 255, 255);" d="M 2294.175 243.155 L 2374.11 243.155 L 2374.11 835.273 L 2294.175 835.273 Z M 2334.701 113.706 C 2318.214 113.706 2304.307 108.069 2293.059 96.821 C 2281.81 85.546 2276.173 72.037 2276.173 56.295 C 2276.173 41.27 2281.81 28.134 2293.059 16.886 C 2304.307 5.637 2318.214 0 2334.701 0 C 2351.215 0 2365.096 5.637 2376.37 16.886 C 2387.619 27.389 2393.256 40.154 2393.256 55.151 C 2393.256 71.665 2387.619 85.546 2376.37 96.821 C 2365.096 108.069 2351.215 113.706 2334.701 113.706 Z"/>
  <path id="path857" style="font: 160px / 1.25 Montserrat; fill-opacity: 1; letter-spacing: 0px; word-spacing: 0px; stroke: none; fill: rgb(255, 255, 255);" d="M 2755.728 840.91 C 2707.704 840.91 2661.54 834.156 2617.265 820.648 C 2573.734 806.394 2539.591 788.764 2514.834 767.73 L 2550.839 704.708 C 2575.622 724.226 2606.761 740.341 2644.282 753.105 C 2681.803 765.124 2720.84 771.107 2761.366 771.107 C 2815.4 771.107 2855.181 762.864 2880.683 746.35 C 2906.955 729.092 2920.092 705.08 2920.092 674.313 C 2920.092 652.535 2912.965 635.649 2898.685 623.656 C 2884.432 610.892 2866.43 601.505 2844.651 595.495 C 2822.899 588.741 2793.994 582.386 2757.988 576.376 C 2709.964 567.361 2671.299 558.347 2642.022 549.359 C 2612.771 539.6 2587.615 523.458 2566.608 500.935 C 2546.345 478.439 2536.213 447.3 2536.213 407.518 C 2536.213 357.978 2556.849 317.452 2598.119 285.941 C 2639.416 254.403 2696.827 238.661 2770.354 238.661 C 2808.646 238.661 2846.911 243.899 2885.177 254.403 C 2923.469 264.162 2954.98 277.299 2979.737 293.812 L 2944.849 357.978 C 2896.079 324.206 2837.897 307.321 2770.354 307.321 C 2719.324 307.321 2680.686 316.335 2654.414 334.338 C 2628.912 352.34 2616.148 375.981 2616.148 405.258 C 2616.148 427.781 2623.275 445.784 2637.528 459.292 C 2652.552 472.801 2670.927 482.933 2692.679 489.687 C 2714.458 495.697 2744.48 502.079 2782.745 508.833 C 2830.025 517.821 2867.919 526.835 2896.452 535.85 C 2924.958 544.838 2949.343 560.235 2969.606 581.987 C 2989.868 603.765 3000 633.787 3000 672.053 C 3000 723.827 2978.248 765.124 2934.717 795.891 C 2891.931 825.913 2832.286 840.91 2755.728 840.91 Z"/>
</svg>

<svg xmlns="http://www.w3.org/2000/svg" viewBox="0 0 3000 840.9"><path d="M0 47.28h83.29v715.96h441.29v72.03H0Zm1170.73 195.88v592.11h-76.56V727.2q-31.5 54.05-86.66 84.43-55.17 29.28-126.1 29.28-115.95 0-183.48-64.16-66.42-65.31-66.43-190.24V243.16h79.93V578.6q0 93.45 46.17 141.84 46.15 48.42 131.7 48.42 93.44 0 147.46-56.3 54.04-57.4 54.03-158.72v-310.7Zm535.85 556.11q-22.53 20.26-56.3 31.5-32.63 10.14-68.66 10.14-83.3 0-128.33-45.02-45.04-45.04-45.05-127.21V310.7h-105.8v-67.54h105.8V113.7h79.94v129.45h180.1v67.54h-180.1v353.48q0 52.9 25.9 81.05 27.02 27.01 76.53 27.02 24.78 0 47.28-7.9 23.65-7.86 40.53-22.5Zm221.75-440.17q28.15-59.64 83.3-90.05 56.3-30.39 138.47-30.39v77.67l-19.14-1.14q-93.43.01-146.34 57.41-52.93 57.45-52.92 160.99v301.68h-79.9V243.16h76.53Zm365.85-115.94h79.93v592.11h-79.93Zm40.52-129.45c-16.49 0-30.4-5.64-41.64-16.89q-16.88-16.9-16.89-40.52 0-22.55 16.89-39.41Q2309.95 0 2334.7 0q24.77 0 41.67 16.89 16.88 15.76 16.89 38.26 0 24.77-16.89 41.67-16.9 16.88-41.67 16.89m421.03 727.2q-72.05 0-138.47-20.26-65.3-21.38-102.43-52.92l36-63.02q37.18 29.26 93.45 48.4 56.29 18 117.09 18 81.05 0 119.31-24.76 39.41-25.89 39.41-72.04.01-32.66-21.4-50.65-21.38-19.15-54.04-28.16-32.64-10.12-86.66-19.12-72.06-13.53-115.97-27.02a179 179 0 0 1-75.41-48.43q-30.4-33.74-30.4-93.41 0-74.31 61.9-121.58 61.95-47.3 172.24-47.28 57.44 0 114.83 15.74 57.43 14.64 94.56 39.41l-34.9 64.17q-73.15-50.66-174.49-50.66-76.53 0-115.94 27.02-38.26 27-38.26 70.92 0 33.77 21.38 54.03 22.53 20.26 55.15 30.4 32.67 9 90.07 19.14 70.91 13.5 113.7 27.02a167 167 0 0 1 73.16 46.14q30.39 32.66 30.39 90.06 0 77.68-65.28 123.84-64.16 45.02-179 45.02" style="font:160px/1.25 Montserrat;fill-opacity:1;letter-spacing:0;word-spacing:0;stroke:none;fill:#fff"/></svg>
